X: 2302
T: Bacup Coconut Tune, The
R: reel
M: 4/4
K: Dmajor
V:1
(^F/G/)|.A .A (A B)|.^F .F .F (D/E/)|.^F .F ((F A))|E2 z (E/^F/)|.G .G (G B)|
.E .E .E (E/^F/)|.G .G (E A)|.^F .F .F (B/^c/)||.d .B .B (B/^c/)|.d .A .A (D/E/)|
.^F .F .E D|.A .A .A (B/^c/)|.d .B (B/^A/)(B/^c/)|.d .A .A (E/^F/)|G/^F/E/B/ A ^c|
.d .D .D||
V:2
[K:D] z|.F .F .F (F|.D) .D .D .D|.D .D .D (D|.C) .C .C .C|.E .E .E (E|.C) .C .C .C|
.C .C .C (C|.D) .D .D .D||.G .G G z|.F .F F z|F z E z|.D .D D z|.G .G G z|
.F .F F z|E z E z|.D .D D||
V:3
[K:D] (F/G/)|A z A2|.d .A F z|A z F D|E/D/C/B,/ A, z|z2 C D|E/D/C/B,/ A, z|
z E/F/ G/ z/ B/c/|.d D/D/ D z||G/A/B/c/ d z|D/E/F/G/ A z|A/d/c/B/ A/G/F/E/|
.D F/G/ A z|G/A/B/c/ d z|D/E/F/G/ A z|z E/F/ G/A/B/c/|.d .A D||
V:4
[K:D] z|D,, z D,, z|.D,, .D,, .D,, .D,,|D,, z D,, z|.A,, .A,, .A,, .A,,|A,, z A,, z|
E,/D,/C,/B,,/ .A,, .A,,|A,, z A,, z|.D,, .D,, .D,, .D,,||G,, z G,, z|.D,, .D,, .D,, z|
A,, z A,, z|.D,, .D,, .D,, .D,,|G,, z G,, z|.D,, .D,, .D,, z|A,, z A,, z|
.D,, .D,, .D,,||

